images/Traffic_Sign_GR_-_KOK_2009_-_P-62.svg

<svg width="460" height="655" fill="none" xmlns="http://www.w3.org/2000/svg"><path d="M460 0H0v655h460V0z" fill="#0C479D"/><path d="M356 564.914v-56.375H226.165v-44.415H109.999V418H25v23.086h61.91v46.127h116.169v44.412H332.91V588H435v-23.086h-79M260.785 172.734c17.014 0 30.797-13.823 30.797-30.867 0-17.046-13.783-30.867-30.797-30.867-17.032 0-30.814 13.821-30.814 30.867 0 17.044 13.782 30.867 30.814 30.867z" fill="#fff"/><path d="M161.164 266.161s13.132-12.574 26.468-25.331l17.226 28.333a10.146 10.146 0 0 0 8.66 4.879l42.424.03-.129 15.058h-32.179c-5.614 0-10.154 4.554-10.154 10.173v98.09c-8.075 4.965-50.749 31.194-50.749 31.194-3.12 1.921-4.838 5.259-4.838 8.683 0 1.815.483 3.653 1.497 5.312 2.932 4.787 9.195 6.287 13.971 3.353l55.586-34.17a10.19 10.19 0 0 0 4.841-8.677v-34.117l21.389.012c0 .928.12 1.859.38 2.746l32.835 113.914c1.555 5.401 7.192 8.512 12.577 6.956 4.452-1.287 7.333-5.356 7.333-9.772 0-.934-.124-1.883-.394-2.826 0 0-31.626-109.713-32.429-112.494.034-2.442.883-107.465 1.162-141.308 14.171 22.014 54.663 84.947 54.663 84.947a10.15 10.15 0 0 0 14.044 3.035c4.708-3.043 6.07-9.339 3.035-14.062l-61.894-96.187a10.167 10.167 0 0 0-7.775-4.632l-66.952-5.061a10.13 10.13 0 0 0-7.778 2.79l-56.841 54.416c-4.059 3.886-4.206 10.326-.33 14.389 3.87 4.063 10.295 4.207 14.351.327z" fill="#fff"/></svg>

<svg width="460" height="655" viewBox="0 0 460 655" fill="none" xmlns="http://www.w3.org/2000/svg">
<path d="M460 0H0V655H460V0Z" fill="#0C479D"/>
<path d="M356 564.914C356 550.316 356 508.539 356 508.539C356 508.539 245.331 508.539 226.165 508.539C226.165 495.891 226.165 464.124 226.165 464.124C226.165 464.124 128.724 464.124 109.999 464.124C109.999 451.147 109.999 418 109.999 418H25V441.086C25 441.086 70.5074 441.086 86.9098 441.086C86.9098 454.063 86.9098 487.213 86.9098 487.213C86.9098 487.213 184.354 487.213 203.079 487.213C203.079 499.858 203.079 531.625 203.079 531.625C203.079 531.625 313.748 531.625 332.91 531.625C332.91 546.227 332.91 588 332.91 588H435V564.914C435 564.914 373.572 564.914 356 564.914" fill="white"/>
<path d="M260.785 172.734C277.799 172.734 291.582 158.911 291.582 141.867C291.582 124.821 277.799 111 260.785 111C243.753 111 229.971 124.821 229.971 141.867C229.971 158.911 243.753 172.734 260.785 172.734Z" fill="white"/>
<path d="M161.164 266.161C161.164 266.161 174.296 253.587 187.632 240.83L204.858 269.163C206.693 272.189 209.978 274.036 213.518 274.042L255.942 274.072L255.813 289.13H223.634C218.02 289.13 213.48 293.684 213.48 299.303C213.48 299.303 213.48 387.217 213.48 397.393C205.405 402.358 162.731 428.587 162.731 428.587C159.611 430.508 157.893 433.846 157.893 437.27C157.893 439.085 158.376 440.923 159.39 442.582C162.322 447.369 168.585 448.869 173.361 445.935L228.947 411.765C231.953 409.912 233.788 406.63 233.788 403.088C233.788 403.088 233.788 387.562 233.788 368.971L255.177 368.983C255.177 369.911 255.297 370.842 255.557 371.729L288.392 485.643C289.947 491.044 295.584 494.155 300.969 492.599C305.421 491.312 308.302 487.243 308.302 482.827C308.302 481.893 308.178 480.944 307.908 480.001C307.908 480.001 276.282 370.288 275.479 367.507C275.513 365.065 276.362 260.042 276.641 226.199C290.812 248.213 331.304 311.146 331.304 311.146C334.347 315.866 340.626 317.227 345.348 314.181C350.056 311.138 351.418 304.842 348.383 300.119L286.489 203.932C284.763 201.254 281.887 199.542 278.714 199.3L211.762 194.239C208.898 194.021 206.061 195.034 203.984 197.029L147.143 251.445C143.084 255.331 142.937 261.771 146.813 265.834C150.683 269.897 157.108 270.041 161.164 266.161Z" fill="white"/>
</svg>
